storage/app/icons/phosphoricons/duotone/not-equals-duotone.svg

<svg xmlns="http://www.w3.org/2000/svg" fill="currentColor" viewBox="0 0 256 256"><path d="M216 56v144a16 16 0 0 1-16 16H56a16 16 0 0 1-16-16V56a16 16 0 0 1 16-16h144a16 16 0 0 1 16 16" opacity=".2"/><path d="M224 160a8 8 0 0 1-8 8H102.45l-48.53 53.38a8 8 0 0 1-11.84-10.76L80.82 168H40a8 8 0 0 1 0-16h55.37L139 104H40a8 8 0 0 1 0-16h113.55l48.53-53.38a8 8 0 0 1 11.84 10.76L175.18 88H216a8 8 0 0 1 0 16h-55.37L117 152h99a8 8 0 0 1 8 8"/></svg>

<svg xmlns="http://www.w3.org/2000/svg" viewBox="0 0 256 256" fill="currentColor"><path d="M216,56V200a16,16,0,0,1-16,16H56a16,16,0,0,1-16-16V56A16,16,0,0,1,56,40H200A16,16,0,0,1,216,56Z" opacity="0.2"/><path d="M224,160a8,8,0,0,1-8,8H102.45L53.92,221.38a8,8,0,0,1-11.84-10.76L80.82,168H40a8,8,0,0,1,0-16H95.37L139,104H40a8,8,0,0,1,0-16H153.55l48.53-53.38a8,8,0,0,1,11.84,10.76L175.18,88H216a8,8,0,0,1,0,16H160.63L117,152h99A8,8,0,0,1,224,160Z"/></svg>
